package/contents/images/toilet-light.svg

<?xml version="1.0" encoding="UTF-8" standalone="no"?>
<!-- Created with Inkscape (http://www.inkscape.org/) -->

<svg:svg
   xmlns:dc="http://purl.org/dc/elements/1.1/"
   xmlns:cc="http://creativecommons.org/ns#"
   xmlns:rdf="http://www.w3.org/1999/02/22-rdf-syntax-ns#"
   xmlns:svg="http://www.w3.org/2000/svg"
   xmlns:sodipodi="http://sodipodi.sourceforge.net/DTD/sodipodi-0.dtd"
   xmlns:inkscape="http://www.inkscape.org/namespaces/inkscape"
   width="22"
   height="22"
   viewBox="0 0 21.999999 21.999999"
   id="svg7888"
   version="1.1"
   inkscape:version="0.91 r13725"
   sodipodi:docname="philips-hue-room-toilet.svg"
   inkscape:export-filename="/home/jamboarder/Projects/KDE VDG/Phillips Hue Plasmoid/philips-hue-bulb-fill.png"
   inkscape:export-xdpi="523.63635"
   inkscape:export-ydpi="523.63635">
  <svg:defs
     id="defs7890">
    <svg:linearGradient
       id="linearGradient4178">
      <svg:stop
         id="stop4180"
         offset="0"
         style="stop-color:#3c3c3c;stop-opacity:0.24313726" />
      <svg:stop
         id="stop4182"
         offset="1"
         style="stop-color:#232629;stop-opacity:0.01176471" />
    </svg:linearGradient>
    <svg:linearGradient
       id="linearGradient4172">
      <svg:stop
         id="stop4174"
         offset="0"
         style="stop-color:#252525;stop-opacity:0.24313726" />
      <svg:stop
         id="stop4176"
         offset="1"
         style="stop-color:#232629;stop-opacity:0.01176471" />
    </svg:linearGradient>
    <svg:linearGradient
       id="linearGradient4165">
      <svg:stop
         id="stop4167"
         offset="0"
         style="stop-color:#1d2023;stop-opacity:0.24313726" />
      <svg:stop
         id="stop4169"
         offset="1"
         style="stop-color:#232629;stop-opacity:0.00392157" />
    </svg:linearGradient>
    <svg:linearGradient
       id="linearGradient7348">
      <svg:stop
         style="stop-color:#232629;stop-opacity:0.20588236"
         offset="0"
         id="stop7350" />
      <svg:stop
         style="stop-color:#232629;stop-opacity:0.01176471"
         offset="1"
         id="stop7352" />
    </svg:linearGradient>
    <style
       type="text/css"
       id="current-color-scheme">
        .ColorScheme-Text {
        color:#f2f2f2;
      }
    </style>
  </svg:defs>
  <sodipodi:namedview
     id="base"
     pagecolor="#ffffff"
     bordercolor="#666666"
     borderopacity="1.0"
     inkscape:pageopacity="0"
     inkscape:pageshadow="2"
     inkscape:zoom="11.313709"
     inkscape:cx="-9.3017782"
     inkscape:cy="13.069226"
     inkscape:document-units="px"
     inkscape:current-layer="g4176"
     showgrid="true"
     units="px"
     inkscape:snap-bbox="true"
     inkscape:bbox-nodes="true"
     inkscape:snap-intersection-paths="true"
     inkscape:snap-midpoints="true"
     inkscape:object-paths="true"
     inkscape:object-nodes="true"
     inkscape:snap-nodes="true"
     showguides="true"
     inkscape:guide-bbox="true"
     inkscape:window-width="1365"
     inkscape:window-height="1011"
     inkscape:window-x="555"
     inkscape:window-y="0"
     inkscape:window-maximized="0"
     inkscape:snap-global="true"
     inkscape:snap-smooth-nodes="true"
     inkscape:bbox-paths="true"
     inkscape:snap-bbox-edge-midpoints="true">
    <inkscape:grid
       type="xygrid"
       id="grid7896"
       empspacing="4"
       originx="0"
       originy="0"
       color="#0000ff"
       opacity="0.12156863" />
    <sodipodi:guide
       position="-4.9999998,19.999999"
       orientation="0,1"
       id="guide8012" />
    <sodipodi:guide
       position="18.999999,5.9999997"
       orientation="1,0"
       id="guide8018" />
    <sodipodi:guide
       position="2.9999999,2.9999999"
       orientation="0,1"
       id="guide8022" />
    <sodipodi:guide
       position="2.9999999,5.9999997"
       orientation="1,0"
       id="guide8024" />
    <sodipodi:guide
       position="10.999999,0"
       orientation="1,0"
       id="guide4302" />
  </sodipodi:namedview>
  <svg:metadata
     id="metadata7893">
    <rdf:RDF>
      <cc:Work
         rdf:about="">
        <dc:format>image/svg+xml</dc:format>
        <dc:type
           rdf:resource="http://purl.org/dc/dcmitype/StillImage" />
        <dc:title />
      </cc:Work>
    </rdf:RDF>
  </svg:metadata>
  <svg:g
     inkscape:label="Layer 1"
     inkscape:groupmode="layer"
     id="layer1"
     transform="translate(0,-1030.3622)">
    <svg:g
       id="g7642"
       transform="matrix(0.42207789,0,0,0.42207789,227.63636,597.49519)">
      <svg:g
         id="g4243"
         transform="translate(-2.3692258,2.3690477)" />
      <svg:g
         id="g4176"
         transform="matrix(1.3564735,0,0,1.3564735,182.96415,-375.39149)">
        <svg:path
           style="color:#000000;clip-rule:nonzero;display:inline;overflow:visible;visibility:visible;opacity:1;isolation:auto;mix-blend-mode:normal;color-interpolation:sRGB;color-interpolation-filters:linearRGB;solid-color:#000000;solid-opacity:1;fill:#f2f2f2;fill-opacity:1;fill-rule:nonzero;stroke:none;stroke-width:1;stroke-linecap:butt;stroke-linejoin:miter;stroke-miterlimit:4;stroke-dasharray:1, 1;stroke-dashoffset:0;stroke-opacity:1;color-rendering:auto;image-rendering:auto;shape-rendering:auto;text-rendering:auto;enable-background:accumulate"
           d="M 6 4 L 6 12 L 7.4238281 12 C 6.4943306 13.738109 6.90964 15.901197 8.4140625 17.158203 C 8.9324371 17.591882 9.5319222 17.865418 10.154297 18 L 9 18 L 9 19 L 13 19 L 13 18 L 11.849609 18 C 12.471984 17.865418 13.071469 17.591882 13.589844 17.158203 C 15.092102 15.900453 15.505526 13.738803 14.576172 12.001953 L 14.576172 12 L 16 12 L 16 4 L 6 4 z M 7 5 L 15 5 L 15 11 L 7 11 L 7 5 z M 13 6 L 13 7 L 14 7 L 14 6 L 13 6 z M 8.4746094 12.884766 L 13.519531 12.890625 C 14.177194 13.971461 13.887142 15.643574 12.828125 16.423828 C 11.769114 17.204025 10.23883 17.201486 9.1777344 16.417969 C 8.1168452 15.63531 7.8217162 13.963655 8.4746094 12.884766 z "
           transform="matrix(1.7466104,0,0,1.7466104,-532.47429,1032.7908)"
           id="rect4154" />
      </svg:g>
    </svg:g>
  </svg:g>
</svg:svg>

<?xml version="1.0" encoding="UTF-8" standalone="no"?>
<svg xmlns="http://www.w3.org/2000/svg" version="1.1" xmlns:cc="http://creativecommons.org/ns#" xmlns:dc="http://purl.org/dc/elements/1.1/" height="22" viewBox="0 0 21.999999 21.999999" width="22" xmlns:rdf="http://www.w3.org/1999/02/22-rdf-syntax-ns#">
<defs>
<style id="current-color-scheme" type="text/css">.ColorScheme-Text {
        color:#f2f2f2;
      }</style>
</defs>
<g transform="translate(0 -1.03e3)">
<g transform="matrix(.422 0 0 .422 228 597)">
<g transform="matrix(1.36 0 0 1.36 183 -375)">
<path style="text-rendering:auto;color-rendering:auto;color:#000000;isolation:auto;mix-blend-mode:normal;shape-rendering:auto;solid-color:#000000;image-rendering:auto" d="m6 4v8h1.42c-0.93 1.7-0.51 3.9 0.99 5.2 0.52 0.4 1.12 0.7 1.79 0.8h-1.2v1h4v-1h-1.2c0.7-0.1 1.3-0.4 1.8-0.8 1.5-1.3 1.9-3.5 1-5.2h1.4v-8h-10zm1 1h8v6h-8v-6zm6 1v1h1v-1h-1zm-4.53 6.9h5.03c0.7 1.1 0.4 2.7-0.7 3.5-1 0.8-2.6 0.8-3.62 0-1.06-0.8-1.36-2.4-0.71-3.5z" transform="matrix(1.75 0 0 1.75 -532 1.03e3)" fill="#f2f2f2"/>
</g>
</g>
</g>
</svg>
